X: 21931
T: Kitten, The
R: slip jig
M: 9/8
K: Eminor
|:G2 B GEE GFE|G2B FEE FED|G2 B GEE GFE|F2G ABG FED:|
|:G2 c BGB AFD|G2 c BGB cBA|G2 c BGd BGd|ecA ABG FED:|
|:B2A GEE BFE|BcA GEE FED|BcA BEE BFE|FDG ABG FED:|
|:G2 G dBG B/c/dB|G2 G dBd ecA|GBd gba gdB|ecA ABG FED:|
|:BGE cGE dGE|cGE BGE AFD|BGE cGE dGE|d2 B ABG FED:|

